X:742
T:Friendly Jack
C:anon.
O:Ireland
B:Francis O'Neill: "Music of Ireland" no. 742
N:"Collected by Fielding"
R:jig
Z:Transcribed by Michael Hogan
F:http://abc.musicaviva.com/tunes/ireland/oneill-1850/oneill-1850-0742.abc
M:6/8
L:1/8
K:D
A2D FED | A2D FED | A2D FED | G2E E3  |*A2D FED | A2D FED | G2A B2G | F2D D3 :|*d2e f2d | g2e f2d | d2e f2d | e2d B2c |*d2e f2d | g2e f2d | d2B A2G | F2D D3 :|*X:742
T:Friendly Jack
R:jig
N:"Collected by Fielding"
B:O'Neill's 742
Z:Transcribed by Michael Hogan
M:6/8
L:1/8
K:D
A2D FED | A2D FED | A2D FED | G2E E3  |
A2D FED | A2D FED | G2A B2G | F2D D3 :|
d2e f2d | g2e f2d | d2e f2d | e2d B2c |
d2e f2d | g2e f2d | d2B A2G | F2D D3 :|
W:
W:
W:  From Musica Viva - http://www.musicaviva.com
W:  the Internet center for free sheet music downloads.
